src/assets/icons/aeropress.svg

<svg xmlns="http://www.w3.org/2000/svg" width="176" height="176" viewBox="0 0 176 176">
  <g fill-rule="evenodd">
    <rect width="48" height="16" x="64" y="144" rx="8"/>
    <path d="M110,40 C115.522847,40 120,44.4771525 120,50 L120,142 C120,147.522847 115.522847,152 110,152 L66,152 C60.4771525,152 56,147.522847 56,142 L56,50 C56,44.4771525 60.4771525,40 66,40 L110,40 Z M108,48 L68,48 C65.790861,48 64,49.790861 64,52 L64,52 L64,140 C64,142.209139 65.790861,144 68,144 L68,144 L108,144 C110.209139,144 112,142.209139 112,140 L112,140 L112,52 C112,49.790861 110.209139,48 108,48 L108,48 Z"/>
    <rect width="80" height="8" x="48" y="144" rx="4"/>
    <path d="M99,24 C103.970563,24 108,28.0294373 108,33 L108,123 C108,127.970563 103.970563,132 99,132 L77,132 C72.0294373,132 68,127.970563 68,123 L68,33 C68,28.0294373 72.0294373,24 77,24 L99,24 Z M96,32 L80,32 C77.790861,32 76,33.790861 76,36 L76,36 L76,120 C76,122.209139 77.790861,124 80,124 L80,124 L96,124 C98.209139,124 100,122.209139 100,120 L100,120 L100,36 C100,33.790861 98.209139,32 96,32 L96,32 Z"/>
    <rect width="64" height="8" x="56" y="24" rx="4"/>
    <rect width="16" height="8" x="88" y="56" rx="4"/>
    <rect width="16" height="8" x="88" y="80" rx="4"/>
    <rect width="16" height="8" x="88" y="104" rx="4"/>
  </g>
</svg>

<svg xmlns="http://www.w3.org/2000/svg" viewBox="0 0 176 176">
    <g fill-rule="evenodd">
        <rect width="48" height="16" x="64" y="144" rx="8"/>
        <path d="M110 40c5.523 0 10 4.477 10 10v92c0 5.523-4.477 10-10 10H66c-5.523 0-10-4.477-10-10V50c0-5.523 4.477-10 10-10h44zm-2 8H68a4 4 0 00-4 4v88a4 4 0 004 4h40a4 4 0 004-4V52a4 4 0 00-4-4z"/>
        <rect width="80" height="8" x="48" y="144" rx="4"/>
        <path d="M99 24a9 9 0 019 9v90a9 9 0 01-9 9H77a9 9 0 01-9-9V33a9 9 0 019-9h22zm-3 8H80a4 4 0 00-4 4v84a4 4 0 004 4h16a4 4 0 004-4V36a4 4 0 00-4-4z"/>
        <rect width="64" height="8" x="56" y="24" rx="4"/>
        <rect width="16" height="8" x="88" y="56" rx="4"/>
        <rect width="16" height="8" x="88" y="80" rx="4"/>
        <rect width="16" height="8" x="88" y="104" rx="4"/>
    </g>
</svg>
